resources/svg/major-archive.svg

<svg xmlns="http://www.w3.org/2000/svg" viewBox="0 0 20 20" fill="currentColor"><path d="M2.5 1a1.5 1.5 0 0 0-1.5 1.5v1.5h18v-1.5a1.5 1.5 0 0 0-1.5-1.5h-15zm-.5 16.5a1.5 1.5 0 0 0 1.5 1.5h13a1.5 1.5 0 0 0 1.5-1.5v-11.5h-16v11.5zm5-8.5h6v2h-6v-2z"/></svg>

<svg xmlns="http://www.w3.org/2000/svg" viewBox="0 0 20 20" fill="currentColor"><path d="M2.5 1A1.5 1.5 0 001 2.5V4h18V2.5A1.5 1.5 0 0017.5 1h-15zM2 17.5A1.5 1.5 0 003.5 19h13a1.5 1.5 0 001.5-1.5V6H2v11.5zM7 9h6v2H7V9z" fill="#5C5F62"/></svg>
